img/logos/producthunt.svg

<?xml version="1.0" encoding="UTF-8" standalone="no"?>
<svg width="256px" height="256px" viewBox="0 0 256 256" version="1.1" xmlns="http://www.w3.org/2000/svg" xmlns:xlink="http://www.w3.org/1999/xlink">
    <defs>
        <linearGradient x1="50%" y1="0%" x2="50%" y2="100%" id="linearGradient-1">
            <stop stop-color="#DA552F" offset="0%"></stop>
            <stop stop-color="#D04B25" offset="100%"></stop>
        </linearGradient>
    </defs>
    <g stroke="none" stroke-width="1" fill="none" fill-rule="evenodd">
        <g>
            <path d="M128,256 C198.6944,256 256,198.6944 256,128 C256,57.3056 198.6944,0 128,0 C57.3056,0 0,57.3056 0,128 C0,198.6944 57.3056,256 128,256 L128,256 Z" fill="url(#linearGradient-1)"></path>
            <path d="M96,76.8 L96,179.2 L115.2,179.2 L115.2,147.2 L144.256,147.2 C163.552,146.688 179.2,131.04 179.2,112 C179.2,92.448 163.552,76.8 144.256,76.8 L96,76.8 L96,76.8 Z M144.4928,128 L115.2,128 L115.2,96 L144.4928,96 C153.056,96 160,103.168 160,112 C160,120.832 153.056,128 144.4928,128 L144.4928,128 Z" fill="#FFFFFF"></path>
        </g>
    </g>
</svg>

<svg width="256" height="256" viewBox="0 0 256 256" xmlns="http://www.w3.org/2000/svg"><defs><linearGradient x1="50%" y1="0%" x2="50%" y2="100%" id="a"><stop stop-color="#DA552F" offset="0%"/><stop stop-color="#D04B25" offset="100%"/></linearGradient></defs><g fill="none" fill-rule="evenodd"><path d="M128 256c70.694 0 128-57.306 128-128S198.694 0 128 0 0 57.306 0 128s57.306 128 128 128z" fill="url(#a)"/><path d="M96 76.8v102.4h19.2v-32h29.056c19.296-.512 34.944-16.16 34.944-35.2 0-19.552-15.648-35.2-34.944-35.2H96zm48.493 51.2H115.2V96h29.293c8.563 0 15.507 7.168 15.507 16s-6.944 16-15.507 16z" fill="#FFF"/></g></svg>
